src/assets/icon/hotel_class.svg

<svg width="28" height="28" viewBox="0 0 28 28" fill="none" xmlns="http://www.w3.org/2000/svg">
<mask id="mask0_408_13967" style="mask-type:alpha" maskUnits="userSpaceOnUse" x="0" y="0" width="28" height="28">
<rect width="28" height="28" fill="#D9D9D9"/>
</mask>
<g mask="url(#mask0_408_13967)">
<path d="M18.7877 16.6926L23.0303 13.0468L23.497 13.0827C23.7534 13.1132 23.9533 13.2198 24.0966 13.4026C24.2397 13.5854 24.3113 13.7834 24.3113 13.9967C24.3113 14.1187 24.2885 14.2383 24.243 14.3558C24.1975 14.4734 24.1141 14.5763 23.9928 14.6644L20.8696 17.3859L21.8076 21.4692C21.8195 21.4994 21.8254 21.5334 21.8254 21.5713V21.6734C21.8254 21.9307 21.7368 22.1448 21.5597 22.3159C21.3824 22.4873 21.1719 22.5729 20.9282 22.5729C20.852 22.5729 20.772 22.564 20.6882 22.5461C20.6044 22.5282 20.5251 22.4938 20.4502 22.4428L20.0734 22.2095L18.7877 16.6926ZM16.3042 8.99494L15.1241 6.22615L15.2857 5.83153C15.3598 5.64836 15.4748 5.50719 15.6307 5.40803C15.7865 5.30886 15.9483 5.25928 16.1163 5.25928C16.2843 5.25928 16.4484 5.30643 16.6087 5.40073C16.7691 5.49485 16.8867 5.63242 16.9616 5.81344L18.3861 9.19007L16.3042 8.99494ZM8.575 19.6294L12.25 17.4127L15.925 19.6586L14.9625 15.4586L18.2 12.6586L13.9417 12.2794L12.25 8.31274L10.5583 12.2502L6.3 12.6294L9.5375 15.4586L8.575 19.6294ZM6.47734 20.8634L7.59238 16.0912L3.88821 12.8808C3.75502 12.7715 3.66227 12.6479 3.60996 12.5098C3.55765 12.3718 3.5315 12.2336 3.5315 12.0954C3.5315 11.848 3.61638 11.6183 3.78613 11.4062C3.95588 11.1942 4.19106 11.0725 4.49167 11.041L9.38146 10.6117L11.2718 6.11649C11.3596 5.90551 11.4958 5.74733 11.6804 5.64194C11.8649 5.53636 12.0538 5.48357 12.2471 5.48357C12.4406 5.48357 12.6302 5.53636 12.8161 5.64194C13.0022 5.74733 13.1396 5.90551 13.2283 6.11649L15.1185 10.6117L20.0083 11.041C20.3089 11.0725 20.5441 11.1941 20.7139 11.4059C20.8836 11.6178 20.9685 11.8473 20.9685 12.0945C20.9685 12.2357 20.9423 12.3747 20.89 12.5116C20.8377 12.6485 20.745 12.7715 20.6118 12.8808L16.9076 16.0912L18.0265 20.8637C18.0434 20.9143 18.0518 20.9926 18.0518 21.0985C18.0518 21.3988 17.9466 21.6504 17.7362 21.8534C17.5259 22.0564 17.2805 22.1579 17.0001 22.1579C16.9474 22.1579 16.761 22.1032 16.441 21.9939L12.25 19.4702L8.05904 21.9939C7.96921 22.0449 7.87597 22.0849 7.77934 22.1141C7.6827 22.1433 7.59043 22.1579 7.50254 22.1579C7.18618 22.1579 6.91377 22.03 6.68529 21.7743C6.45682 21.5184 6.3875 21.2148 6.47734 20.8634Z" fill="black"/>
</g>
</svg>

<svg xmlns="http://www.w3.org/2000/svg" width="28" height="28" fill="none" xmlns:v="https://vecta.io/nano"><mask id="A" maskUnits="userSpaceOnUse" x="0" y="0" width="28" height="28" mask-type="alpha"><path fill="#d9d9d9" d="M0 0h28v28H0z"/></mask><g mask="url(#A)"><path d="M18.788 16.693l4.243-3.646.467.036c.256.03.456.137.6.32s.215.381.215.594c0 .122-.023.242-.068.359s-.129.22-.25.309l-3.123 2.721.938 4.083c.012.03.018.064.018.102v.102c0 .257-.089.471-.266.642s-.388.257-.631.257a1.15 1.15 0 0 1-.24-.027.67.67 0 0 1-.238-.103l-.377-.233-1.286-5.517zm-2.483-7.698l-1.18-2.769.162-.395c.074-.183.189-.324.345-.423a.89.89 0 0 1 .486-.149.96.96 0 0 1 .492.141.83.83 0 0 1 .353.413l1.424 3.377-2.082-.195zM8.575 19.629l3.675-2.217 3.675 2.246-.963-4.2 3.237-2.8-4.258-.379-1.692-3.967-1.692 3.937-4.258.379 3.238 2.829-.963 4.171zm-2.098 1.234l1.115-4.772-3.704-3.21c-.133-.109-.226-.233-.278-.371a1.16 1.16 0 0 1-.078-.414 1.08 1.08 0 0 1 .255-.689c.17-.212.405-.334.706-.365l4.89-.429 1.89-4.495c.088-.211.224-.369.409-.475s.373-.158.567-.158a1.14 1.14 0 0 1 .569.158.95.95 0 0 1 .412.475l1.89 4.495 4.89.429c.301.031.536.153.706.365a1.08 1.08 0 0 1 .255.689 1.16 1.16 0 0 1-.078.417.89.89 0 0 1-.278.369l-3.704 3.21 1.119 4.773a.8.8 0 0 1 .025.235c0 .3-.105.552-.316.755s-.456.305-.736.305c-.053 0-.239-.055-.559-.164L12.25 19.47l-4.191 2.524c-.09.051-.183.091-.28.12s-.189.044-.277.044a1.06 1.06 0 0 1-.817-.384c-.228-.256-.298-.559-.208-.911z" fill="#000"/></g></svg>
